X: 2223
T: Rise ye Lazy Lubber.   a Reel.
O: Very Old.
%R: reel
B: Niel Gow & Sons "Complete Repository" v.2 P.22 #3
Z: 2021 John Chambers <jc:trillian.mit.edu>
M: C
L: 1/8
K: Am
% - - - - - - - - - -
V: 1 staves=2
c |\
A2AB G3A | ~cdec A2A,2 | A2Ac G2-G>B | Tc>dec A3 :| g | aegd edca | gedc A3g |
aegd Tedce | dega A3g || aegd edca | gedc A3g | aegd Tedce | dega A3 |]
% - - - - - - - - - -
% Voice 2 preserves the staff layout in the book.
V: 2 clef=bass middle=d
z | A2A2 G2G2 | A2E2 A2A2 | A2A2 G2G2 | A2E2 A3 :| z | a2b2 c'2c'2 | e'2e2 a2A2 |
a2b2 c'2c'2 | d'2e'2 a3z || a2b2 c'2d'2 | e'2e2 a2A2 | a2b2 c'2c'2 | d'2e'2 a3 |]


